svgs/sharp-solid/piano-keyboard.svg

<svg xmlns="http://www.w3.org/2000/svg" viewBox="0 0 576 512"><!--! Font Awesome Pro 6.6.0 by @fontawesome - https://fontawesome.com License - https://fontawesome.com/license (Commercial License) Copyright 2024 Fonticons, Inc. --><path d="M576 64L0 64 0 448l576 0 0-384zM512 224l0 160-80 0 0-64 16 0 0-32 0-64 64 0zM400 384l-96 0 0-64 16 0 0-32 0-64 64 0 0 64 0 32 16 0 0 64zm-128 0l-96 0 0-64 16 0 0-32 0-64 64 0 0 64 0 32 16 0 0 64zm-128 0l-80 0 0-160 64 0 0 64 0 32 16 0 0 64z"/></svg>

<svg xmlns="http://www.w3.org/2000/svg" viewBox="0 0 576 512"><!--! Font Awesome Pro 6.4.0 by @fontawesome - https://fontawesome.com License - https://fontawesome.com/license (Commercial License) Copyright 2023 Fonticons, Inc. --><path d="M576 64H0V448H576V64zM512 224V384H432V320h16V288 224h64zM400 384H304V320h16V288 224h64v64 32h16v64zm-128 0H176V320h16V288 224h64v64 32h16v64zm-128 0H64V224h64v64 32h16v64z"/></svg>
